data/zen-tokyo-zoo.svg

<svg width="86.842" height="16.8" viewBox="0 0 86.842 16.8" xmlns="http://www.w3.org/2000/svg"><path transform="translate(0 13.3) scale(.014 -.014)" d="m164 0 499 804h35l-499-804zm-154 0 499 804h35l-499-804zm77 0 499 804h35l-499-804zm-5 774v30h385l-18-30zm0-66v30h345l-19-30zm0-66v30h304l-19-30zm235-510 19 30h290v-30zm-41-66 19 30h331v-30zm-40-66 18 30h372v-30z"/><path transform="translate(9.912 13.3) scale(.014 -.014)" d="M106 0V402H345V372H136V336H345V306H136V249H313V219H136V183H313V153H136V96H345V66H136V30H345V0ZM40 0V402H70V0Z"/><path transform="translate(14.994 13.3) scale(.014 -.014)" d="M40 0V402H70V0ZM374 0V402H404V0ZM308 112 136 351V290L308 51ZM106 0V402H136L308 163V402H338V0H308L136 239V0Z"/><path transform="translate(25.13 13.3) scale(.014 -.014)" d="M10 774V804H631V774ZM10 708V738H631V708ZM10 642V672H631V642ZM372 0V610H402V0ZM240 0V610H270V0ZM306 0V610H336V0Z"/><path transform="translate(34.104 13.3) scale(.014 -.014)" d="m434 201q0 52-24.5 92.5t-67 64.5-95.5 24-95.5-24-67-64.5-24.5-92.5q0-51 24.5-92t67-65 95.5-24 95.5 24 67 65 24.5 92zm-66 0q0 50-34.5 82.5t-86.5 32.5-86.5-32.5-34.5-82.5q0-49 34.5-82t86.5-33 86.5 33 34.5 82zm-121-145q-43 0-77 19t-54 52-20 74 20 74 54 52 77 19 77-19 54-52 20-74-20-74-54-52-77-19zm0-66q-61 0-110 28t-78 76-29 107q0 60 29 107.5t78 75.5 110 28 110-28 78-75.5 29-107.5q0-59-29-107t-78-76-110-28z"/><path transform="translate(41.02 13.3) scale(.014 -.014)" d="M332 0 148 230 246 402H281L184 233L208 203L323 402H358L228 179L371 0ZM106 0V402H136V188L286 0H248L136 140V0ZM40 0V402H70V0Z"/><path transform="translate(46.354 13.3) scale(.014 -.014)" d="m233 195-142 207h37l83-121 83 121h37l-101-149 21-31 124 180h37l-142-207zm-81 0-142 207h37l142-207zm77-195v171h30v-171zm-66 0v171h30v-171z"/><path transform="translate(52.262 13.3) scale(.014 -.014)" d="m434 201q0 52-24.5 92.5t-67 64.5-95.5 24-95.5-24-67-64.5-24.5-92.5q0-51 24.5-92t67-65 95.5-24 95.5 24 67 65 24.5 92zm-66 0q0 50-34.5 82.5t-86.5 32.5-86.5-32.5-34.5-82.5q0-49 34.5-82t86.5-33 86.5 33 34.5 82zm-121-145q-43 0-77 19t-54 52-20 74 20 74 54 52 77 19 77-19 54-52 20-74-20-74-54-52-77-19zm0-66q-61 0-110 28t-78 76-29 107q0 60 29 107.5t78 75.5 110 28 110-28 78-75.5 29-107.5q0-59-29-107t-78-76-110-28z"/><path transform="translate(63.098 13.3) scale(.014 -.014)" d="m164 0 499 804h35l-499-804zm-154 0 499 804h35l-499-804zm77 0 499 804h35l-499-804zm-5 774v30h385l-18-30zm0-66v30h345l-19-30zm0-66v30h304l-19-30zm235-510 19 30h290v-30zm-41-66 19 30h331v-30zm-40-66 18 30h372v-30z"/><path transform="translate(73.01 13.3) scale(.014 -.014)" d="m434 201q0 52-24.5 92.5t-67 64.5-95.5 24-95.5-24-67-64.5-24.5-92.5q0-51 24.5-92t67-65 95.5-24 95.5 24 67 65 24.5 92zm-66 0q0 50-34.5 82.5t-86.5 32.5-86.5-32.5-34.5-82.5q0-49 34.5-82t86.5-33 86.5 33 34.5 82zm-121-145q-43 0-77 19t-54 52-20 74 20 74 54 52 77 19 77-19 54-52 20-74-20-74-54-52-77-19zm0-66q-61 0-110 28t-78 76-29 107q0 60 29 107.5t78 75.5 110 28 110-28 78-75.5 29-107.5q0-59-29-107t-78-76-110-28z"/><path transform="translate(79.926 13.3) scale(.014 -.014)" d="m434 201q0 52-24.5 92.5t-67 64.5-95.5 24-95.5-24-67-64.5-24.5-92.5q0-51 24.5-92t67-65 95.5-24 95.5 24 67 65 24.5 92zm-66 0q0 50-34.5 82.5t-86.5 32.5-86.5-32.5-34.5-82.5q0-49 34.5-82t86.5-33 86.5 33 34.5 82zm-121-145q-43 0-77 19t-54 52-20 74 20 74 54 52 77 19 77-19 54-52 20-74-20-74-54-52-77-19zm0-66q-61 0-110 28t-78 76-29 107q0 60 29 107.5t78 75.5 110 28 110-28 78-75.5 29-107.5q0-59-29-107t-78-76-110-28z"/></svg>

<?xml version="1.0" encoding="utf-8" ?>
<svg baseProfile="tiny" height="100%" version="1.2" width="100%" xmlns="http://www.w3.org/2000/svg" xmlns:ev="http://www.w3.org/2001/xml-events" xmlns:xlink="http://www.w3.org/1999/xlink"><defs /><g><path d="M164 0 663 804H698L199 0ZM10 0 509 804H544L45 0ZM87 0 586 804H621L122 0ZM82 774V804H467L449 774ZM82 708V738H427L408 708ZM82 642V672H386L367 642ZM317 132 336 162H626V132ZM276 66 295 96H626V66ZM236 0 254 30H626V0Z" transform="translate(0.0, 72) scale(0.072, -0.072)" /><path d="M106 0V402H345V372H136V336H345V306H136V249H313V219H136V183H313V153H136V96H345V66H136V30H345V0ZM40 0V402H70V0Z" transform="translate(50.976, 72) scale(0.072, -0.072)" /><path d="M40 0V402H70V0ZM374 0V402H404V0ZM308 112 136 351V290L308 51ZM106 0V402H136L308 163V402H338V0H308L136 239V0Z" transform="translate(77.112, 72) scale(0.072, -0.072)" /><path d="M10 774V804H631V774ZM10 708V738H631V708ZM10 642V672H631V642ZM372 0V610H402V0ZM240 0V610H270V0ZM306 0V610H336V0Z" transform="translate(129.23999999999998, 72) scale(0.072, -0.072)" /><path d="M434 201Q434 253 409.5 293.5Q385 334 342.5 358.0Q300 382 247 382Q194 382 151.5 358.0Q109 334 84.5 293.5Q60 253 60 201Q60 150 84.5 109.0Q109 68 151.5 44.0Q194 20 247 20Q300 20 342.5 44.0Q385 68 409.5 109.0Q434 150 434 201ZM368 201Q368 251 333.5 283.5Q299 316 247 316Q195 316 160.5 283.5Q126 251 126 201Q126 152 160.5 119.0Q195 86 247 86Q299 86 333.5 119.0Q368 152 368 201ZM247 56Q204 56 170.0 75.0Q136 94 116.0 127.0Q96 160 96 201Q96 242 116.0 275.0Q136 308 170.0 327.0Q204 346 247 346Q290 346 324.0 327.0Q358 308 378.0 275.0Q398 242 398 201Q398 160 378.0 127.0Q358 94 324.0 75.0Q290 56 247 56ZM247 -10Q186 -10 137.0 18.0Q88 46 59.0 94.0Q30 142 30 201Q30 261 59.0 308.5Q88 356 137.0 384.0Q186 412 247 412Q308 412 357.0 384.0Q406 356 435.0 308.5Q464 261 464 201Q464 142 435.0 94.0Q406 46 357.0 18.0Q308 -10 247 -10Z" transform="translate(175.39199999999997, 72) scale(0.072, -0.072)" /><path d="M332 0 148 230 246 402H281L184 233L208 203L323 402H358L228 179L371 0ZM106 0V402H136V188L286 0H248L136 140V0ZM40 0V402H70V0Z" transform="translate(210.95999999999998, 72) scale(0.072, -0.072)" /><path d="M233 195 91 402H128L211 281L294 402H331L230 253L251 222L375 402H412L270 195ZM152 195 10 402H47L189 195ZM229 0V171H259V0ZM163 0V171H193V0Z" transform="translate(238.39199999999997, 72) scale(0.072, -0.072)" /><path d="M434 201Q434 253 409.5 293.5Q385 334 342.5 358.0Q300 382 247 382Q194 382 151.5 358.0Q109 334 84.5 293.5Q60 253 60 201Q60 150 84.5 109.0Q109 68 151.5 44.0Q194 20 247 20Q300 20 342.5 44.0Q385 68 409.5 109.0Q434 150 434 201ZM368 201Q368 251 333.5 283.5Q299 316 247 316Q195 316 160.5 283.5Q126 251 126 201Q126 152 160.5 119.0Q195 86 247 86Q299 86 333.5 119.0Q368 152 368 201ZM247 56Q204 56 170.0 75.0Q136 94 116.0 127.0Q96 160 96 201Q96 242 116.0 275.0Q136 308 170.0 327.0Q204 346 247 346Q290 346 324.0 327.0Q358 308 378.0 275.0Q398 242 398 201Q398 160 378.0 127.0Q358 94 324.0 75.0Q290 56 247 56ZM247 -10Q186 -10 137.0 18.0Q88 46 59.0 94.0Q30 142 30 201Q30 261 59.0 308.5Q88 356 137.0 384.0Q186 412 247 412Q308 412 357.0 384.0Q406 356 435.0 308.5Q464 261 464 201Q464 142 435.0 94.0Q406 46 357.0 18.0Q308 -10 247 -10Z" transform="translate(268.77599999999995, 72) scale(0.072, -0.072)" /><path d="M164 0 663 804H698L199 0ZM10 0 509 804H544L45 0ZM87 0 586 804H621L122 0ZM82 774V804H467L449 774ZM82 708V738H427L408 708ZM82 642V672H386L367 642ZM317 132 336 162H626V132ZM276 66 295 96H626V66ZM236 0 254 30H626V0Z" transform="translate(324.50399999999996, 72) scale(0.072, -0.072)" /><path d="M434 201Q434 253 409.5 293.5Q385 334 342.5 358.0Q300 382 247 382Q194 382 151.5 358.0Q109 334 84.5 293.5Q60 253 60 201Q60 150 84.5 109.0Q109 68 151.5 44.0Q194 20 247 20Q300 20 342.5 44.0Q385 68 409.5 109.0Q434 150 434 201ZM368 201Q368 251 333.5 283.5Q299 316 247 316Q195 316 160.5 283.5Q126 251 126 201Q126 152 160.5 119.0Q195 86 247 86Q299 86 333.5 119.0Q368 152 368 201ZM247 56Q204 56 170.0 75.0Q136 94 116.0 127.0Q96 160 96 201Q96 242 116.0 275.0Q136 308 170.0 327.0Q204 346 247 346Q290 346 324.0 327.0Q358 308 378.0 275.0Q398 242 398 201Q398 160 378.0 127.0Q358 94 324.0 75.0Q290 56 247 56ZM247 -10Q186 -10 137.0 18.0Q88 46 59.0 94.0Q30 142 30 201Q30 261 59.0 308.5Q88 356 137.0 384.0Q186 412 247 412Q308 412 357.0 384.0Q406 356 435.0 308.5Q464 261 464 201Q464 142 435.0 94.0Q406 46 357.0 18.0Q308 -10 247 -10Z" transform="translate(375.47999999999996, 72) scale(0.072, -0.072)" /><path d="M434 201Q434 253 409.5 293.5Q385 334 342.5 358.0Q300 382 247 382Q194 382 151.5 358.0Q109 334 84.5 293.5Q60 253 60 201Q60 150 84.5 109.0Q109 68 151.5 44.0Q194 20 247 20Q300 20 342.5 44.0Q385 68 409.5 109.0Q434 150 434 201ZM368 201Q368 251 333.5 283.5Q299 316 247 316Q195 316 160.5 283.5Q126 251 126 201Q126 152 160.5 119.0Q195 86 247 86Q299 86 333.5 119.0Q368 152 368 201ZM247 56Q204 56 170.0 75.0Q136 94 116.0 127.0Q96 160 96 201Q96 242 116.0 275.0Q136 308 170.0 327.0Q204 346 247 346Q290 346 324.0 327.0Q358 308 378.0 275.0Q398 242 398 201Q398 160 378.0 127.0Q358 94 324.0 75.0Q290 56 247 56ZM247 -10Q186 -10 137.0 18.0Q88 46 59.0 94.0Q30 142 30 201Q30 261 59.0 308.5Q88 356 137.0 384.0Q186 412 247 412Q308 412 357.0 384.0Q406 356 435.0 308.5Q464 261 464 201Q464 142 435.0 94.0Q406 46 357.0 18.0Q308 -10 247 -10Z" transform="translate(411.04799999999994, 72) scale(0.072, -0.072)" /></g></svg>
